src/assets/Images/013-earth.svg

<svg enable-background="new 0 0 480 480" viewBox="0 0 480 480" xmlns="http://www.w3.org/2000/svg"><path d="m240 0c-132.548 0-240 107.452-240 240s107.452 240 240 240 240-107.452 240-240-107.452-240-240-240zm223.12 220.64-21.52 16c-6.089 4.566-9.651 11.75-9.6 19.36v31.12c.006 2.764-1.416 5.335-3.76 6.8l-44.24 27.68v-113.6c0-4.418-3.582-8-8-8h-60.24l-32.96-39.52 70.16-70.16c1.533-1.462 3.562-2.291 5.68-2.32h45.68c33.819 36.435 54.512 83.114 58.8 132.64zm-223.12-204.64c22.235-.015 44.348 3.301 65.6 9.84l-41.2 35.28-26.72-26.8c-.62-.578-1.321-1.063-2.08-1.44l-28.8-14.4c10.991-1.636 22.088-2.465 33.2-2.48zm-164.32 72h116.32c2.603-.014 5.05 1.239 6.56 3.36l25.92 36.64h-24.48c-4.418 0-8 3.582-8 8v40c-.015 2.01.728 3.952 2.08 5.44l81.44 88.72-64 38.32c-7.172 4.366-11.541 12.163-11.52 20.56v53.92l-32-26.72v-116.24c0-4.418-3.582-8-8-8h-75.84l-52.16-74.72c10.179-25.581 24.986-49.067 43.68-69.28zm16.4 320h40.64l63.2 51.68c-38.55-7.811-74.364-25.635-103.84-51.68zm147.92 56c-4.64 0-9.2-.16-13.68-.48l-85.28-69.68c-1.418-1.175-3.198-1.825-5.04-1.84h-60.32c-53.815-58.022-72.952-140.168-50.32-216l48 68.64c1.526 2.144 4.009 3.4 6.64 3.36h72v112c-.004 2.379 1.052 4.637 2.88 6.16l48 40c1.439 1.193 3.251 1.844 5.12 1.84 1.159.006 2.305-.239 3.36-.72 2.836-1.312 4.648-4.155 4.64-7.28v-70.96c0-2.825 1.49-5.439 3.92-6.88l72-43.28c2.087-1.238 3.5-3.357 3.84-5.76.352-2.376-.382-4.784-2-6.56l-85.76-93.68v-28.88h32c4.418-.02 7.983-3.619 7.963-8.037-.008-1.651-.526-3.259-1.483-4.603l-35.2-49.28c-4.447-6.247-11.612-9.993-19.28-10.08h-99.92c25.779-22.632 56.403-39.053 89.52-48l45.68 22.8 31.04 31.12c1.548 1.41 3.587 2.157 5.68 2.08 1.907 0 3.751-.681 5.2-1.92l53.76-46.08c23.781 9.521 45.753 23.05 64.96 40h-29.28c-6.363.006-12.463 2.538-16.96 7.04l-75.36 75.28c-2.936 2.931-3.145 7.62-.48 10.8l40 48c1.523 1.828 3.781 2.884 6.16 2.88h56v120c-.008 2.932 1.588 5.633 4.16 7.04 2.475 1.429 5.525 1.429 8 0l56.48-35.28c7.135-4.42 11.443-12.247 11.36-20.64v-31.12c0-2.518 1.186-4.889 3.2-6.4l12.8-9.6c0 123.712-100.288 224-224 224z"/></svg>

<?xml version="1.0" encoding="iso-8859-1"?>
<!-- Generator: Adobe Illustrator 19.0.0, SVG Export Plug-In . SVG Version: 6.00 Build 0)  -->
<svg version="1.1" id="Capa_1" xmlns="http://www.w3.org/2000/svg" xmlns:xlink="http://www.w3.org/1999/xlink" x="0px" y="0px"
	 viewBox="0 0 480 480" style="enable-background:new 0 0 480 480;" xml:space="preserve">
<g>
	<g>
		<path d="M240,0C107.452,0,0,107.452,0,240s107.452,240,240,240s240-107.452,240-240S372.548,0,240,0z M463.12,220.64l-21.52,16
			c-6.089,4.566-9.651,11.75-9.6,19.36v31.12c0.006,2.764-1.416,5.335-3.76,6.8L384,321.6V208c0-4.418-3.582-8-8-8h-60.24
			l-32.96-39.52l70.16-70.16c1.533-1.462,3.562-2.291,5.68-2.32h45.68C438.139,124.435,458.832,171.114,463.12,220.64z M240,16
			c22.235-0.015,44.348,3.301,65.6,9.84l-41.2,35.28l-26.72-26.8c-0.62-0.578-1.321-1.063-2.08-1.44l-28.8-14.4
			C217.791,16.844,228.888,16.015,240,16z M75.68,88H192c2.603-0.014,5.05,1.239,6.56,3.36L224.48,128H200c-4.418,0-8,3.582-8,8v40
			c-0.015,2.01,0.728,3.952,2.08,5.44l81.44,88.72l-64,38.32c-7.172,4.366-11.541,12.163-11.52,20.56v53.92l-32-26.72V240
			c0-4.418-3.582-8-8-8H84.16L32,157.28C42.179,131.699,56.986,108.213,75.68,88z M92.08,408h40.64l63.2,51.68
			C157.37,451.869,121.556,434.045,92.08,408z M240,464c-4.64,0-9.2-0.16-13.68-0.48l-85.28-69.68
			c-1.418-1.175-3.198-1.825-5.04-1.84H75.68C21.865,333.978,2.728,251.832,25.36,176l48,68.64c1.526,2.144,4.009,3.4,6.64,3.36h72
			v112c-0.004,2.379,1.052,4.637,2.88,6.16l48,40c1.439,1.193,3.251,1.844,5.12,1.84c1.159,0.006,2.305-0.239,3.36-0.72
			c2.836-1.312,4.648-4.155,4.64-7.28v-70.96c0-2.825,1.49-5.439,3.92-6.88l72-43.28c2.087-1.238,3.5-3.357,3.84-5.76
			c0.352-2.376-0.382-4.784-2-6.56L208,172.88V144h32c4.418-0.02,7.983-3.619,7.963-8.037c-0.008-1.651-0.526-3.259-1.483-4.603
			l-35.2-49.28C206.833,75.833,199.668,72.087,192,72H92.08c25.779-22.632,56.403-39.053,89.52-48l45.68,22.8l31.04,31.12
			c1.548,1.41,3.587,2.157,5.68,2.08c1.907,0,3.751-0.681,5.2-1.92L322.96,32c23.781,9.521,45.753,23.05,64.96,40h-29.28
			c-6.363,0.006-12.463,2.538-16.96,7.04l-75.36,75.28c-2.936,2.931-3.145,7.62-0.48,10.8l40,48c1.523,1.828,3.781,2.884,6.16,2.88
			h56v120c-0.008,2.932,1.588,5.633,4.16,7.04c2.475,1.429,5.525,1.429,8,0l56.48-35.28c7.135-4.42,11.443-12.247,11.36-20.64V256
			c0-2.518,1.186-4.889,3.2-6.4L464,240C464,363.712,363.712,464,240,464z"/>
	</g>
</g>
<g>
</g>
<g>
</g>
<g>
</g>
<g>
</g>
<g>
</g>
<g>
</g>
<g>
</g>
<g>
</g>
<g>
</g>
<g>
</g>
<g>
</g>
<g>
</g>
<g>
</g>
<g>
</g>
<g>
</g>
</svg>
